!!!COM: Joplin, Scott
!!!CDT: 1868/11/24/-1917/04/01/
!!!OTL: Swipsey
!!!ODT: 1902///
**kern	**kern	**dynam
*staff2	*staff1	*staff1/2
*Ipiano	*Ipiano	*Ipiano
*>[I,A,A1,A,A2,B,B1,B,B2,C,D,D1,D,D2,E,E1,E,E2]	*>[I,A,A1,A,A2,B,B1,B,B2,C,D,D1,D,D2,E,E1,E,E2]	*>[I,A,A1,A,A2,B,B1,B,B2,C,D,D1,D,D2,E,E1,E,E2]
*>norep[I,A,A2,B,B2,C,D,D2,E,E2]	*>norep[I,A,A2,B,B2,C,D,D2,E,E2]	*>norep[I,A,A2,B,B2,C,D,D2,E,E2]
*>I	*>I	*>I
*clefF4	*clefG2	*clefG2
*k[b-e-]	*k[b-e-]	*k[b-e-]
*M2/4	*M2/4	*M2/4
*MM100	*MM100	*MM100
=1-	=1-	=1-
16FLK	16fLK	f
8f^	8ff^	.
16c#Jk	16cc#Jk	.
8dL	8ddL	.
8cnJ	8ccnJ	.
=2	=2	=2
8B-L	8b-L	.
8DJ	8dJ	.
8E-L	8e-L	.
8EnJ	8enJ	.
=3	=3	=3
16FLK	16fLK	.
8B-^	8b-^	.
16G#Jk	16g#Jk	.
8AL	8aL	.
8GnJ	8gnJ	.
=4	=4	=4
8FL	8fL	.
8dJ D	8ffJ	.
8d-L D-	8ggL een	.
8cJ C	8aaJ ee-	.
=5!|:	=5!|:	=5!|:
*>A	*>A	*>A
8B-L BB-	16bb-LK dd	.
.	8bb- dd	.
8dJ B- F	.	.
.	16ffJk	.
8FFL	16aaLL	.
.	16gg	.
8fJ d F	16ff	.
.	16ddJJ	.
=6	=6	=6
8BB-L	16ffLK	.
.	8gg	.
8dJ B- F	.	.
.	16ffJk	.
8FFL	8ddL	.
8fJ d F	8b-J	.
=7	=7	=7
8dL G	16b-LK	.
.	8dd	.
8dJ B- G	.	.
.	16b-Jk	.
8dL A F# D	8aL f#	.
8dJ A F# D	16ddL f#	.
.	[16gJJ	.
=8	=8	=8
8dL B- G	4g]	.
8dJ B- G	.	.
8dL B- G	16r	.
.	8b-L	.
8dJ G	.	.
.	16gJk	.
=9	=9	=9
8E-L EE-	16b-LL	.
.	16cc	.
8FJ FF	16b-	.
.	16gJJ	.
8GL GG	16b-LL	.
.	16cc	.
8AJ AA	16b-	.
.	16gJJ	.
=10	=10	=10
8B-L BB-	16b-LK	.
.	8dd f	.
8dJ B- F	.	.
.	16b-Jk	.
8GL GG	4dd g	.
8dJ B- G	.	.
=11	=11	=11
8CL	16ccLK	.
.	8bb- cc	.
8enJ c B-	.	.
.	[16aaJk [cc	.
8CL	16aa]LL cc]	.
.	16eenJ	.
8eJ c B-	8ggJ cc	.
=12	=12	=12
8FL FF	16cccLL ee-	.
.	16ff	.
8F#J FF#	16aa ee-	.
.	16ffJJ	.
8GL GG	16ggLK	.
.	8aa ee-	.
8AJ AA	.	.
.	16ffJk	.
=13	=13	=13
8B-L BB-	16bb-LK dd	.
.	8bb- dd	.
8dJ B- F	.	.
.	16ffJk	.
8FFL	16aaLL	.
.	16gg	.
8dJ B- F	16ff	.
.	16ddJJ	.
=14	=14	=14
8BB-L	16ffLK	.
.	8gg	.
8dJ B- F	.	.
.	16ffJk	.
8FFL	8ddL	.
8B-J F	8b-J	.
=15	=15	=15
8dL B- G	16b-LK	.
.	8dd	.
8dJ B- G	.	.
.	16b-Jk	.
8dL A F# D	8aL f#	.
8dJ A F# D	16ddL f#	.
.	[16gJJ	.
=16	=16	=16
8dL B- G	4g]	.
8dJ B- G	.	.
8dL B- G	16r	.
.	8b-L	.
8dJ B- G	.	.
.	16gJk	.
=17	=17	=17
8E-L EE-	16b-LL	.
.	16cc	.
8FJ FF	16b-	.
.	16gJJ	.
8GL GG	16b-LL	.
.	16cc	.
8AJ AA	16b-	.
.	16gJJ	.
=18	=18	=18
8B-L BB-	16b-LK	.
.	8dd f	.
8dJ B- F	.	.
.	16b-Jk	.
8GGL	4dd f	.
8BnJ G F	.	.
=19	=19	=19
8CL	16gLK en	.
.	8.ddJ e	.
8B-J G	.	.
8FL	16aLK f	.
.	8cc f	.
8e-J A	.	.
.	[16b-Jk [f	.
=20	=20	=20
*>A1	*>A1	*>A1
8dL B-	16b-]LL f]	.
.	16f	.
8e-J c F	16g	.
.	16aJJ	.
8d B-	16b-LL	.
.	16cc	.
8r	16dd	.
.	16ffJJ	.
=21:|!	=21:|!	=21:|!
*>A2	*>A2	*>A2
8dL B-	16b-LL f	.
.	16f	.
8e-J c F	16g	.
.	16aJJ	.
8d B-	8b-L	.
8r	8fJ	.
=22!|:	=22!|:	=22!|:
*>B	*>B	*>B
8cL C	16aLK	.
.	8ee- f	.
8e-J A F	.	.
.	16ccJk	.
8FFL	16ddLL	.
.	16cc	.
8e-J A F	16a	.
.	16fJJ	.
=23	=23	=23
8CL	16aLK	.
.	8ee- f	.
8e-J A F	.	.
.	16ccJk	.
8FFL	16ddLL	.
.	16cc	.
8e-J A F	16a	.
.	16fJJ	.
=24	=24	=24
8BB-L	16b-LK	.
.	8dd	.
8dJ B- F	.	.
.	16b-Jk	.
8DL	4g	.
8dJ B- F	.	.
=25	=25	=25
8GL GG	16r	.
.	8ddL b- g	.
8dJ B- G	.	.
.	16ccJk	.
8GL GG	16ddLL	.
.	16cc	.
8dJ B- G	16b-	.
.	16gJJ	.
=26	=26	=26
8DL DD	16aLK	.
.	8dd f#	.
8dJ c F#	.	.
.	16ccJk	.
8DL DD	[4a [f#	.
8dJ c F#	.	.
=27	=27	=27
8DL DD	2a] f#]	.
16E-L EE-	.	.
[16DJJ [DD	.	.
16D]LL DD]	.	.
16C CC	.	.
16BB- BBB-	.	.
16AAJJ AAA	.	.
=28	=28	=28
8GGL GGG	16b-LK	.
.	8dd	.
8dJ B- G	.	.
.	16b-Jk	.
8BB-L	4g	.
8dJ B- G	.	.
=29	=29	=29
8GGL	16r	.
.	8ddL b- g	.
8dJ B- G	.	.
.	16ccJk	.
8dL B- G	16ddLL	.
.	16cc	.
8dJ B- G	16b-	.
.	16gJJ	.
=30	=30	=30
8CL	16aLK	.
.	8ee- f	.
8e-J A F	.	.
.	16ccJk	.
8FFL	16ddLL	.
.	16cc	.
8e-J A F	16a	.
.	16fJJ	.
=31	=31	=31
8CL	16aLK	.
.	8ee- f	.
8e-J A F	.	.
.	16ccJk	.
8FFL	16ddLL	.
.	16cc	.
8e-J A F	16a	.
.	16fJJ	.
=32	=32	=32
8BB-L	16b-LK	.
.	8dd	.
8dJ B- F	.	.
.	16b-Jk	.
8DL	4g	.
8dJ B- F	.	.
=33	=33	=33
8GL GG	16r	.
.	8ddL b- g	.
8dJ B- G	.	.
.	16ccJk	.
8dL B- G	16ddLL	.
.	16cc	.
8dJ B- G	16b-	.
.	16gJJ	.
=34	=34	=34
8E-L EE-	16b-LL	.
.	16cc	.
8FJ FF	16b-	.
.	16gJJ	.
8GL GG	16b-LL	.
.	16cc	.
8AJ AA	16b-	.
.	16gJJ	.
=35	=35	=35
8B-L BB-	16b-LK	.
.	8dd f	.
8dJ B- F	.	.
.	16b-Jk	.
8GGL	4dd f	.
8BnJ G F	.	.
=36	=36	=36
8CL	16gLK en	.
.	8.ddJ e	.
8B-J G	.	.
8FL	16aLK f	.
.	8cc f	.
8e-J A	.	.
.	[16b-Jk [f	.
=37	=37	=37
*>B1	*>B1	*>B1
8d B-	8b-]L f]	.
8r	8ffJ	.
8r	8ffL	.
8Bn BBn	8fJ	.
=38:|!	=38:|!	=38:|!
*>B2	*>B2	*>B2
8dL B-	8b-L f	.
8dJ D	8ffJ	.
8d-L D-	8ggL een	.
8cJ C	8aaJ ee	.
=39	=39	=39
*>C	*>C	*>C
*clefF4	*clefG2	*clefG2
8B-L BB-	16bb-LK dd	.
.	8bb- dd	.
8dJ B- F	.	.
.	16ffJk	.
8FFL	16aaLL	.
.	16gg	.
8dJ B- F	16ff	.
.	16ddJJ	.
=40	=40	=40
8BB-L	16ffLK	.
.	8gg	.
8dJ B- F	.	.
.	16ffJk	.
8FFL	8ddL	.
8dJ B- F	8b-J	.
=41	=41	=41
8dL B- G	16b-LK	.
.	8dd	.
8dJ B- G	.	.
.	16b-Jk	.
8dL A F# D	8aL f#	.
8dJ A F# D	16ddL f#	.
.	[16gJJ	.
=42	=42	=42
8dL B- G	4g]	.
8dJ B- G	.	.
8dL B- G	16r	.
.	8b-L	.
8dJ B- G	.	.
.	16gJk	.
=43	=43	=43
8E-L EE-	16b-LL	.
.	16cc	.
8FJ FF	16b-	.
.	16gJJ	.
8GL GG	16b-LL	.
.	16cc	.
8AJ AA	16b-	.
.	16gJJ	.
=44	=44	=44
8B-L BB-	16b-LK	.
.	8dd f	.
8dJ B- F	.	.
.	16b-Jk	.
8GL GG	4dd g	.
8dJ B- G	.	.
=45	=45	=45
8CL	16ccLK	.
.	8bb- cc	.
8enJ c B-	.	.
.	[16aaJk [cc	.
8CL	16aa]LL cc]	.
.	16eenJ	.
8eJ c B-	8ggJ cc	.
=46	=46	=46
8FL FF	16cccLL ee-	.
.	16ff	.
8F#J FF#	16aa ee-	.
.	16ffJJ	.
8GL GG	16ggLK	.
.	8aa ee-	.
8AJ AA	.	.
.	16ffJk	.
=47	=47	=47
8B-L BB-	16bb-LK dd	.
.	8bb- dd	.
8dJ B- F	.	.
.	16ffJk	.
8FFL	16aaLL	.
.	16gg	.
8dJ B- F	16ff	.
.	16ddJJ	.
=48	=48	=48
8BB-L	16ffLK	.
.	8gg	.
8dJ B- F	.	.
.	16ffJk	.
8FFL	8ddL	.
8dJ B- F	8b-J	.
=49	=49	=49
8dL B- G	16b-LK	.
.	8dd	.
8dJ B- G	.	.
.	16b-Jk	.
8dL A F# D	8aL f#	.
8dJ A F# D	16ddL f#	.
.	[16gJJ	.
=50	=50	=50
8dL B- G	4g]	.
8dJ B- G	.	.
8dL B- G	16r	.
.	8b-L	.
8dJ B- G	.	.
.	16gJk	.
=51	=51	=51
8E-L EE-	16b-LL	.
.	16cc	.
8GJ FF	16b-	.
.	16gJJ	.
8GL GG	16b-LL	.
.	16cc	.
8AJ AA	16b-	.
.	16gJJ	.
=52	=52	=52
8B-L BB-	16b-LK	.
.	8dd f	.
8dJ B- F	.	.
.	16b-Jk	.
8GGL	4dd f	.
8BnJ G F	.	.
=53	=53	=53
8CL	16gLK en	.
.	8.ddJ e	.
8d-J B-	.	.
8FL	16aLK f	.
.	8cc f	.
8e-J A	.	.
.	[16b-Jk [f	.
=54	=54	=54
8dL B-	16b-]LL f]	.
.	16f	.
8e-J c F	16g	.
.	16aJJ	.
8dL B-	8b-L	.
16B-L BB-	16bb-L	.
16cJJ C	16aaJJ	.
=55	=55	=55
*>D	*>D	*>D
*k[b-e-a-]	*k[b-e-a-]	*k[b-e-a-]
8dL D	8aa-L	p
8dJ B- A-	16ffL	.
.	[16ffJJ	.
8BB-L	16ffLL]	.
.	16cc	.
8dJ B- A-	16dd	.
.	16ee-JJ	.
=56	=56	=56
8FL	8ggL dd a-	.
8dJ B- A-	16ffL dd a-	.
.	[16ffJJ [dd [a-	.
8BB-L	16ff]LL dd] a-]	.
.	16b-	.
8dJ B- A-	16cc	.
.	16ddJJ	.
=57	=57	=57
8E-L	8ffL g	.
8e-J B- G	16ee-L g	.
.	[16ee-JJ [g	.
8BB-L	16ee-]LL g]	.
.	16g	.
8e-J B- G	16a-	.
.	16b-JJ	.
=58	=58	=58
8E-L	8ccL g	.
8e-J B- G	16b-L g	.
.	[16b-JJ [g	.
8BB-L	16b-]LL g]	.
.	16g	.
8e-J B- G	16f	.
.	16e-JJ	.
=59	=59	=59
8FL	16r	.
.	16dLL	.
8dJ B- A-	16f	.
.	16a-JJ	.
8BB-L	16ddLK	.
.	8cc a-	.
8dJ B- A-	.	.
.	16ddJk	.
=60	=60	=60
8FL	8ccL a-	.
8dJ B- A-	16ccL a-	.
.	[16ccJJ [a-	.
8BB-L	16cc]LL a-]	.
.	16b-	.
8dJ B- A-	16a-	.
.	16fJJ	.
=61	=61	=61
8E-L	16r	.
.	16e-LL	.
8e-J B- G	16g	.
.	16b-JJ	.
8BB-L	16ee-LK	.
.	8cc g	.
8e-J B- G	.	.
.	16ee-Jk	.
=62	=62	=62
8E-L	8ccL g	.
8e-J B- G	16b-L g	.
.	[16b-JJ [g	.
8e-L B- G	8b-]L g]	.
16B-L BB-	16bb-L	.
16cJJ C	16aanJJ	.
=63	=63	=63
8dL D	8aa-L	.
8dJ B- A-	16ffL	.
.	[16ffJJ	.
8BB-L	16ffLL]	.
.	16cc	.
8dJ B- A-	16dd	.
.	16ee-JJ	.
=64	=64	=64
8FL	8ggL dd a-	.
8dJ B- A-	16ffL dd a-	.
.	[16ffJJ [dd [a-	.
8BB-L	16ff]LL dd] a-]	.
.	16b-	.
8dJ B- A-	16cc	.
.	16ddJJ	.
=65	=65	=65
8E-L	8ffL g	.
8e-J B- G	16ee-L g	.
.	[16ee-JJ [g	.
8BB-L	16ee-]LL g]	.
.	16g	.
8e-J B- G	16a-	.
.	16b-JJ	.
=66	=66	=66
8E-L	8ccL g	.
8e-J B- G	16b-L g	.
.	[16b-JJ [g	.
8BB-L	16b-]LL g]	.
.	16b-	.
8e-J B- G	16ee-	.
.	16ggJJ	.
=67	=67	=67
8CL CC	16r	.
.	16eenLL	<
8enJ c B-	16gg	.
.	16bb-JJ	.
8EnL EEn	16ddd-LK	.
.	8ccc	.
8eJ c B-	.	.
.	[16bb-Jk [cc	.
=68	=68	=68
8FL FF	16bb-]LL cc]	.
.	16aa-J	.
8GJ GG	8eenJ cc b-	.
8A-L AA-	8ffL cc a-	.
8AnJ AAn	8ff#J ee cc	.
=69	=69	=69
8B-L BB-	16ggLK	>
.	8bb-	.
8e-J B- G	.	.
.	16ggJk	.
8CL CC	8ffL ee- an	.
8DJ DD	16ffL a-	.
.	[16ee-JJ [g	.
=70	=70	=70
*>D1	*>D1	*>D1
8E-L EE-	16ee-]LK g]	.
.	8gg	.
8e-J B- G	.	.
.	16cccJk	.
8e-L B- G	8bb-L	.
16B-L BB-	16bb-L	.
16cJJ C	16aanJJ	.
=71:|!	=71:|!	=71:|!
*>D2	*>D2	*>D2
8E-L EE-	8ee-L g	.
8BB-J BBB-	8bb-J aa- dd	.
8EE- EEE-	8eee-L bb- gg ee-	.
8r	8fJ	.
=72	=72	=72
*>E	*>E	*>E
*k[b-e-]	*k[b-e-]	*k[b-e-]
8BB-L	16ffLK	f
.	8dd b- f	.
8dJ B- F	.	.
.	16ffJk	.
8FFL	4dd b- f	.
8dJ B- F	.	.
=73	=73	=73
8BB-L	16ffLK	.
.	8dd b- f	.
8dJ B- F	.	.
.	16ffJk	.
8FFL	8.ddL b- f	.
8dJ B- F	.	.
.	[16b-Jk [g	.
=74	=74	=74
8E-L EE-	16b-]LL g]	.
.	16cc	.
8FJ FF	16dd g	.
.	16b-JJ	.
8GL GG	16ccLL g	.
.	16dd	.
8AJ AA	16cc g	.
.	[16b-JJ [f	.
=75	=75	=75
8B-L BB-	4b-_ f_	.
8dJ B- F	.	.
8FFL	8.b-]L f]	.
8dJ B- F	.	.
.	16fJk	.
=76	=76	=76
8BB-L	16ffLK	.
.	8dd b- f	.
8dJ B- F	.	.
.	16ffJk	.
8FFL	4dd b- f	.
8dJ B- F	.	.
=77	=77	=77
8BB-L	16ffLK	.
.	8dd b- f	.
8dJ B- F	.	.
.	16ffJk	.
8FFL	8.ddL b- f	.
8dJ B- F	.	.
.	[16gJk [en	<
=78	=78	=78
8CL	8g]L en]	.
8B-J G	8ddJ e	.
8CL	16ccLK e	.
.	8dd e	.
8B-J G	.	.
.	[16ccJk [a [f	.
=79	=79	=79
8FL FF	8cc]L a] f]	.
8FJ FF	8ffJ f	>
8GL GG	8eenL en	.
8AJ AA	8ee-J e-	.
=80	=80	=80
8BB-L	16ffLK	f
.	8dd b- f	.
8dJ B- F	.	.
.	16ffJk	.
8FFL	4dd b- f	.
8dJ B- F	.	.
=81	=81	=81
8BB-L	16ffLK	.
.	8dd b- f	.
8dJ B- F	.	.
.	16ffJk	.
8FFL	8.ddL b- f	.
8dJ B- F	.	.
.	[16b-Jk [g	.
=82	=82	=82
8E-L EE-	16b-]LL g]	.
.	16ccJ	.
8E-J EE-	8b-J g	.
8E-L EE-	16ccLL g	.
.	16b-	.
8E-J EE-	16cc g	.
.	[16ddJJ [f#	.
=83	=83	=83
8DL DD	4dd_ f#_	.
8AJ AA	.	.
8F#L FF#	8.dd]L f#]	.
8DJ DD	.	.
.	16b-Jk	.
=84	=84	=84
8B-L BB-	16ddLL	.
.	16b-	.
8A-J AA-	16cc	.
.	16ddJJ	.
8GL GG	16ccLL	.
.	16b-	.
8FJ FF	16a-	.
.	16ddJJ	.
=85	=85	=85
8E-L EE-	8ee-L g	.
8cJ G E-	16ddL	.
.	[16ccJJ	.
8EnL EEn	16ccLL]	.
.	16b-	.
8c#J B- E	16g	.
.	16b-JJ	.
=86	=86	=86
8FL FF	16fLK	.
.	8ff f	.
8dJ B- F	.	.
.	16ddJk f	.
8GL GG	8ccL b- en	.
8AJ AA	16ccL e-	.
.	[16b-JJ [d	.
=87	=87	=87
*>E1	*>E1	*>E1
8B-L BB-	16b-]LK d]	.
.	8.ffJ f	.
8dJ B- F	.	.
8dL B- F	8ffL f	.
8e-J c F	8ffJ a f	.
=88:|!	=88:|!	=88:|!
*>E2	*>E2	*>E2
8B-L BB-	16b-LL d	.
.	16b-	.
8FJ FF	16dd	.
.	16ffJJ	.
8BB- BBB-	8bb- b-	.
8r	8r	.
=	=	=
*-	*-	*-
!!!ENC: Craig Stuart Sapp
!!!END: 2005/04/08/
